icons/cloud-data-16.svg

<?xml version="1.0" encoding="UTF-8"?><svg id="icons" xmlns="http://www.w3.org/2000/svg" viewBox="0 0 16 16"><defs><style>.cls-1{fill:none;}.cls-1,.cls-2{stroke-width:0px;}</style></defs><rect class="cls-1" width="16" height="16"/><path class="cls-2" d="M15,10.93042v-1.33521c0-.14038-.02051-.32013-.07416-.51624.04449-.18646.07416-.3786.07416-.57898,0-.97852-.58008-1.87207-1.47949-2.27539l-.50391-.22656-.07617-.54785c-.27344-1.9668-1.9668-3.4502-3.94043-3.4502-1.44531,0-2.78223.80176-3.49023,2.09277l-.40234.73438-.79395-.2666c-.12012-.04102-.22266-.06055-.31348-.06055-.52051,0-.94531.39648-.9873.9209l-.04688.57812-.52441.24609c-.88867.41895-1.44141,1.2832-1.44141,2.25488,0,1.37891,1.12109,2.5,2.5,2.5h2.5v1h-2.5c-1.93298,0-3.5-1.56702-3.5-3.5,0-1.40033.82794-2.59937,2.01605-3.15894.08234-1.02899.93384-1.84106,1.98395-1.84106.22253,0,.4328.04486.63275.11194.84949-1.54919,2.47577-2.61194,4.36725-2.61194,2.52576,0,4.59265,1.87933,4.93066,4.31213,1.2179.54773,2.06934,1.76587,2.06934,3.18787,0,.90869-.35571,1.78101-1,2.43042ZM14,9.5957l-.00897,3.71387c0,1.10938-1.75177,1.69043-3.49103,1.69043s-3.5-.58105-3.5-1.69043v-3.71387c0-.29199.13672-.71289.78711-1.05957.25195-.13379.55762-.24609.91016-.33301.27441-.06738.57812-.12109.90234-.15625.57227-.06055,1.22949-.06055,1.7998,0,.3252.03516.62891.08887.90234.15625.35352.08691.65918.19922.91113.33301.65039.34668.78711.76758.78711,1.05957ZM8.00586,9.60645c.02148.00684.08594.04114.25195.12903.17578.09375.41113.17871.67968.24512.23438.05859.49317.10352.76954.13281.50195.05273,1.08301.05273,1.58691,0,.27539-.0293.53418-.07422.76758-.13281.26953-.06641.50488-.15137.68066-.24512.14746-.07812.21484-.10657.24316-.13977-.02832-.03418-.0957-.19763-.24316-.27576-.17578-.09375-.41113-.17871-.6797-.24512-.23339-.05762-.49218-.10352-.76952-.13281-.50195-.05273-1.08301-.05273-1.58691,0-.27637.0293-.53516.0752-.76953.13281-.26758.06641-.50293.15137-.67871.24512-.16602.08789-.23047.2572-.25195.2865ZM13,10.56818c-.20776.09131-.43463.13837-.69727.20312-.27344.06836-.57715.12109-.90234.15625-.28613.03027-.5879.04688-.90039.04688-.31251,0-.61426-.0166-.89941-.04688-.32617-.03516-.62988-.08789-.9043-.15625-.2619-.06476-.48859-.11176-.69629-.20306v2.82233c.04199.20508.94238.69043,2.5.69043s2.45801-.48535,2.5-.69336v-2.81946Z"/></svg>

<svg xmlns="http://www.w3.org/2000/svg" viewBox="0 0 16 16"><path stroke-width="0" fill="none" d="M0 0h16v16H0z"/><path d="M15 10.93V9.595c0-.14-.02-.32-.074-.516C14.97 8.893 15 8.7 15 8.5a2.5 2.5 0 0 0-1.48-2.275l-.503-.227-.077-.548C12.667 3.483 10.974 2 9 2a3.993 3.993 0 0 0-3.49 2.093l-.403.734-.794-.266A.978.978 0 0 0 4 4.5a.989.989 0 0 0-.987.92L2.966 6l-.525.246A2.478 2.478 0 0 0 1 8.5C1 9.879 2.121 11 3.5 11H6v1H3.5a3.492 3.492 0 0 1-1.484-6.659A1.994 1.994 0 0 1 4 3.5c.223 0 .433.045.633.112C5.483 2.062 7.109 1 9 1c2.526 0 4.593 1.88 4.93 4.312A3.495 3.495 0 0 1 16 8.5c0 .909-.356 1.781-1 2.43zm-1-1.334l-.009 3.714c0 1.109-1.752 1.69-3.491 1.69S7 14.419 7 13.31V9.596c0-.292.137-.713.787-1.06.252-.134.558-.246.91-.333.275-.067.578-.121.903-.156.572-.06 1.23-.06 1.8 0 .325.035.628.089.902.156a4 4 0 0 1 .91.333c.651.347.788.768.788 1.06zm-5.994.01c.021.007.086.042.252.13.176.093.41.178.68.245.234.058.493.103.769.132a7.98 7.98 0 0 0 1.587 0c.275-.029.534-.074.768-.132.27-.067.504-.152.68-.246.148-.078.215-.106.243-.14-.028-.033-.095-.197-.243-.275a3.033 3.033 0 0 0-.68-.245 5.742 5.742 0 0 0-.769-.133 7.98 7.98 0 0 0-1.587 0 5.8 5.8 0 0 0-.77.133 3.042 3.042 0 0 0-.678.245c-.166.088-.23.257-.252.286zm4.994.962c-.208.091-.435.139-.697.203a6.728 6.728 0 0 1-.903.157 8.577 8.577 0 0 1-1.8 0 6.759 6.759 0 0 1-.904-.157c-.262-.064-.488-.111-.696-.203v2.823c.042.205.942.69 2.5.69s2.458-.485 2.5-.693v-2.82z" stroke-width="0"/></svg>
